X:1812
T:Bourr\'ee in 3/8
R:Bourr\'ee
O:France
M:3/8
L:1/8
K:C
e3 |efe |d2c |d3 |e3 |efe |d2c |dc/B/A/G/:|\
ede | cA/B/c/d/| ede | cBc |
ede | cA/B/c/d/| ede | cBc | \
d3 | dcd | e2d | cBc | d3 | dcd | e2d | c3 ||


